X:1
T:Title
%%score { 1 | 2 }
L:1/8
M:6/4
K:Ab
V:1 treble nm="Grand Piano"
V:2 bass 
V:1
 z6 z4[Q:1/4=132] [EAc]2 | [EGc]4 [DGB]2 [EGc]4 [DGB]2 | [DEB]6 [CEA]4 [CEA]2 | %3
 [C=EA]4 [B,EG]2 [CEA]4 [B,EG]2 | F6 E4 E2 | [EGc]4 [DGB]2 [EGc]4 [DGB]2 | [DEB]6 [CEA]4 [CEA]2 | %7
 [=DG]4 [DF]2 [DB]4 D2 | E6- E4 E2 | F4 G2 A4 B2 | [Ec]6 [CA]4 [Cc]2 | G4 c2 A4 [Ec]2 | %12
 [EB]6- [EB]4 [Gc]2 | [Gc]4 [GB]2 [Gc]4 [GB]2 | A6 F4 F2 | F4 E2 B4 c2 | %16
[M:5/4] [CA]2- [CA]2- [CA]6 |] %17
V:2
 z6 z4 A,2 | E,4 E,2 E,4 E,2 | A,,6 A,,4 A,,2 | C,4 C,2 C,4 C,2 | [F,A,]6 [G,B,]4 [A,C]2 | %5
 E,4 E,2 E,4 E,2 | A,,6 A,,4 A,,2 | [B,,B,]4 [B,,B,]2 [B,,A,]4 [B,,A,B,]2 | %8
 [E,G,B,]6- [E,G,B,]4 [E,G,B,]2 | [E,A,C]4 [E,B,D]2 [E,CE]4 [E,G,E]2 | [A,,A,]6 [A,,E,]4 [A,,E,]2 | %11
 [C,=E,C]4 [C,E,C]2 [F,C]4 [C,A,]2 | [E,G,]6- [E,G,]4 [E,E]2 | [E,E]4 [E,D]2 [E,E]4 [=E,D]2 | %14
 [F,CF]6 [D,D]4 [D,A,D]2 | [E,G,D]4 [E,G,D]2 [E,G,D]4 [E,D]2 | %16
[M:5/4] [A,,E,]2- [A,,E,]2- [A,,E,]6 |] %17

